assets/svg/java.svg

<?xml version="1.0" encoding="UTF-8"?>
<svg width="39px" height="39px" viewBox="0 0 39 39" version="1.1" xmlns="http://www.w3.org/2000/svg" xmlns:xlink="http://www.w3.org/1999/xlink">
    <title>java</title>
    <g id="Garage" stroke="none" stroke-width="1" fill="none" fill-rule="evenodd">
        <g id="Yard-/-Pricing-Copy-2" transform="translate(-1093.000000, -3770.000000)">
            <g id="Features" transform="translate(465.000000, 1330.000000)">
                <g id="Langs" transform="translate(150.000000, 2133.000000)">
                    <g id="Group-5" transform="translate(0.000000, 179.000000)">
                        <g id="java" transform="translate(478.000000, 128.000000)">
                            <path d="M14.1013686,-5.69712169e-16 L24.8986314,5.69712169e-16 C29.8019845,-3.31019177e-16 31.5800588,0.510540861 33.3726514,1.46922987 C35.165244,2.42791888 36.5720811,3.83475604 37.5307701,5.62734863 C38.4894591,7.41994122 39,9.19801553 39,14.1013686 L39,24.8986314 C39,29.8019845 38.4894591,31.5800588 37.5307701,33.3726514 C36.5720811,35.165244 35.165244,36.5720811 33.3726514,37.5307701 C31.5800588,38.4894591 29.8019845,39 24.8986314,39 L14.1013686,39 C9.19801553,39 7.41994122,38.4894591 5.62734863,37.5307701 C3.83475604,36.5720811 2.42791888,35.165244 1.46922987,33.3726514 C0.510540861,31.5800588 2.20679451e-16,29.8019845 -3.79808113e-16,24.8986314 L3.79808113e-16,14.1013686 C-2.20679451e-16,9.19801553 0.510540861,7.41994122 1.46922987,5.62734863 C2.42791888,3.83475604 3.83475604,2.42791888 5.62734863,1.46922987 C7.41994122,0.510540861 9.19801553,3.31019177e-16 14.1013686,-5.69712169e-16 Z" id="Rectangle" fill="#FFFFFF"></path>
                            <path d="M15.3621984,26.6004977 C15.3621984,26.6004977 14.1999451,27.2763884 16.1893345,27.5051009 C18.5994238,27.7800479 19.8311926,27.7406175 22.4871275,27.2379418 C22.4871275,27.2379418 23.1853975,27.6757746 24.160582,28.0549948 C18.2066776,30.6067384 10.6857233,27.9071924 15.3621984,26.6004977" id="Path" fill="#5382A1" fill-rule="nonzero"></path>
                            <path d="M14.6346629,23.2706396 C14.6346629,23.2706396 13.3310833,24.235577 15.3219482,24.4415003 C17.8964811,24.707102 19.9296456,24.7288256 23.4478021,24.0513774 C23.4478021,24.0513774 23.9344107,24.5447079 24.699573,24.8144903 C17.5009477,26.9194657 9.48297399,24.9804914 14.6346629,23.2706396" id="Path" fill="#5382A1" fill-rule="nonzero"></path>
                            <path d="M20.7680123,17.6220951 C22.2350517,19.3111251 20.382562,20.831039 20.382562,20.831039 C20.382562,20.831039 24.1076256,18.90805 22.3968721,16.5000101 C20.7990812,14.2543642 19.5737885,13.1385913 26.2070265,9.29154762 C26.2070265,9.29154762 15.7950307,11.8919848 20.7680123,17.6220951" id="Path" fill="#E76F00" fill-rule="nonzero"></path>
                            <path d="M28.6425284,29.0634614 C28.6425284,29.0634614 29.5026188,29.7721424 27.6952977,30.3203968 C24.258625,31.3614898 13.3914995,31.6758671 10.3726576,30.3618765 C9.28746164,29.8897778 11.3225116,29.2346269 11.9626608,29.0971535 C12.6302719,28.9523842 13.0117874,28.9793543 13.0117874,28.9793543 C11.8049393,28.1291829 5.21121361,30.64871 9.66250105,31.3702612 C21.8018095,33.3389107 31.7913019,30.4837746 28.6425284,29.0634614" id="Path" fill="#5382A1" fill-rule="nonzero"></path>
                            <path d="M15.9211096,19.8205229 C15.9211096,19.8205229 10.3933975,21.1334477 13.9636088,21.6102192 C15.4710623,21.8120437 18.4761322,21.7663832 21.2752788,21.5318503 C23.5628962,21.3388792 25.8599409,20.9285902 25.8599409,20.9285902 C25.8599409,20.9285902 25.0532987,21.2740364 24.4697128,21.6725209 C18.856418,23.1488235 8.01257357,22.46203 11.134377,20.9519533 C13.7744905,19.6757536 15.9211096,19.8205229 15.9211096,19.8205229" id="Path" fill="#5382A1" fill-rule="nonzero"></path>
                            <path d="M25.8371516,25.3632366 C31.543325,22.3980889 28.9050149,19.5486091 27.06351,19.9325019 C26.6121511,20.0264462 26.4109004,20.1078482 26.4109004,20.1078482 C26.4109004,20.1078482 26.5784591,19.8453616 26.8984927,19.7317431 C30.5415804,18.4509527 33.3433502,23.5092712 25.7224674,25.5126785 C25.7224674,25.5127605 25.8107554,25.4338177 25.8371516,25.3632366" id="Path" fill="#5382A1" fill-rule="nonzero"></path>
                            <path d="M22.3968721,3.07958336 C22.3968721,3.07958336 25.5570402,6.2408172 19.3995899,11.1019018 C14.4619398,15.001328 18.2736518,17.2246764 19.3975405,19.7649433 C16.5153523,17.1645061 14.400212,14.8753312 15.8192136,12.7447793 C17.9019735,9.61731956 23.6719241,8.10101268 22.3968721,3.07958336" id="Path" fill="#E76F00" fill-rule="nonzero"></path>
                            <path d="M16.4818242,33.3980973 C21.9590391,33.7487079 30.369923,33.2035686 30.5691243,30.6119028 C30.5691243,30.6119028 30.1862152,31.5943832 26.0425011,32.374629 C21.3675835,33.2543937 15.6017317,33.151678 12.1819461,32.5878482 C12.1819461,32.5877662 12.8820197,33.1672533 16.4818242,33.3980973" id="Path" fill="#5382A1" fill-rule="nonzero"></path>
                        </g>
                    </g>
                </g>
            </g>
        </g>
    </g>
</svg>

<svg width="39" height="39" xmlns="http://www.w3.org/2000/svg">
  <g fill="none" fill-rule="evenodd">
    <path d="M14.101 0H24.9c4.903 0 6.681.51 8.474 1.47a9.995 9.995 0 014.158 4.157C38.489 7.42 39 9.198 39 14.101V24.9c0 4.903-.51 6.681-1.47 8.474a9.995 9.995 0 01-4.157 4.158C31.58 38.489 29.802 39 24.899 39H14.1c-4.903 0-6.681-.51-8.474-1.47a9.995 9.995 0 01-4.158-4.157C.511 31.58 0 29.802 0 24.899V14.1C0 9.198.51 7.42 1.47 5.627A9.995 9.995 0 015.626 1.47C7.42.511 9.198 0 14.101 0z" fill="#FFF"/>
    <path d="M15.362 26.6s-1.162.676.827.905c2.41.275 3.642.236 6.298-.267 0 0 .698.438 1.674.817-5.954 2.552-13.475-.148-8.799-1.455M14.635 23.27s-1.304.966.687 1.172c2.574.265 4.608.287 8.126-.39 0 0 .486.493 1.252.762-7.2 2.105-15.217.166-10.065-1.543" fill="#5382A1" fill-rule="nonzero"/>
    <path d="M20.768 17.622c1.467 1.69-.385 3.209-.385 3.209s3.725-1.923 2.014-4.331c-1.598-2.246-2.823-3.361 3.81-7.208 0 0-10.412 2.6-5.439 8.33" fill="#E76F00" fill-rule="nonzero"/>
    <path d="M28.643 29.063s.86.71-.948 1.257c-3.436 1.041-14.304 1.356-17.322.042-1.086-.472.95-1.127 1.59-1.265.667-.145 1.049-.118 1.049-.118-1.207-.85-7.8 1.67-3.35 2.391 12.14 1.969 22.13-.886 18.98-2.307M15.921 19.82s-5.528 1.313-1.957 1.79c1.507.202 4.512.156 7.311-.078 2.288-.193 4.585-.603 4.585-.603s-.807.345-1.39.744c-5.614 1.476-16.457.789-13.336-.721 2.64-1.276 4.787-1.131 4.787-1.131M25.837 25.363c5.706-2.965 3.068-5.814 1.227-5.43-.452.093-.653.175-.653.175s.167-.263.487-.376c3.644-1.281 6.445 3.777-1.176 5.78 0 0 .089-.078.115-.149" fill="#5382A1" fill-rule="nonzero"/>
    <path d="M22.397 3.08s3.16 3.16-2.997 8.022c-4.938 3.9-1.126 6.123-.002 8.663-2.883-2.6-4.998-4.89-3.579-7.02 2.083-3.128 7.853-4.644 6.578-9.665" fill="#E76F00" fill-rule="nonzero"/>
    <path d="M16.482 33.398c5.477.35 13.888-.194 14.087-2.786 0 0-.383.982-4.526 1.763-4.675.88-10.441.777-13.861.213 0 0 .7.58 4.3.81" fill="#5382A1" fill-rule="nonzero"/>
  </g>
</svg>
